brandFactory_export/1.Light/Documento_Archivo MP4_1Light.svg

<?xml version="1.0" encoding="UTF-8"?>
<svg width="24px" height="24px" viewBox="0 0 24 24" version="1.1" xmlns="http://www.w3.org/2000/svg" xmlns:xlink="http://www.w3.org/1999/xlink">
    <title>1.Light/Documento_Archivo MP4_1Light</title>
    <g id="Symbols" stroke="none" stroke-width="1" fill="none" fill-rule="evenodd">
        <g id="1.Light/Documento_Archivo-MP4_1Light" fill="#5CB615" fill-rule="nonzero">
            <path d="M16.3058824,0.00672268908 C16.5243697,0.00672268908 16.7327731,0.0907563025 16.887395,0.238655462 L23.3781513,6.5210084 C23.4857143,6.62521008 23.5495798,6.75966387 23.5831933,6.90756303 C23.610084,6.96806723 23.6235294,7.03193277 23.6235294,7.10252101 L23.6235294,22.1781513 C23.6235294,22.9613445 22.9478992,23.6235294 22.1478992,23.6235294 L7.22352941,23.6235294 C6.43697479,23.6235294 5.74789916,22.9478992 5.74789916,22.1781513 L5.79159664,18.5344538 L2.72268908,18.5344538 C1.22352941,18.5344538 0.00336134409,17.3142857 0.00336134409,15.8117647 L0.00336134409,10.7966387 C0.00336134409,9.29411765 1.22352941,8.07394958 2.72268908,8.07394958 L5.74789916,8.07394958 L5.74789916,1.45210084 C5.74789916,0.695798319 6.45042017,0.00672268908 7.22352941,0.00672268908 L16.3058824,0.00672268908 Z M15.4789916,0.994957983 L7.22016807,0.994957983 C6.99831933,0.994957983 6.73277311,1.24033613 6.73277311,1.4487395 L6.73277311,8.07058824 L14.7764706,8.07058824 C16.2756303,8.07058824 17.4957983,9.2907563 17.4957983,10.7932773 L17.4957983,15.8084034 C17.4957983,17.3109244 16.2756303,18.5310924 14.7764706,18.5310924 L6.77647059,18.5310924 L6.73277311,22.1815126 C6.73277311,22.4 6.97815126,22.6285714 7.22016807,22.6285714 L22.1478992,22.6285714 L22.1478992,22.6319328 C22.3966387,22.6319328 22.6352941,22.410084 22.6352941,22.1781513 L22.6352941,7.91932773 L19.5529412,7.91932773 C18.3764706,7.91932773 17.3613445,7.5394958 16.6218487,6.82352941 C15.8756303,6.10084034 15.4789916,5.1092437 15.4789916,3.96302521 L15.4789916,0.994957983 Z M14.7798319,9.06218487 L2.71932773,9.06218487 C1.76806723,9.06218487 0.991596638,9.83865546 0.991596638,10.7932773 L0.991596638,15.8084034 C0.991596638,16.7630252 1.76470588,17.5394958 2.71932773,17.5394958 L14.7798319,17.5394958 C15.7310924,17.5394958 16.507563,16.7630252 16.507563,15.8084034 L16.507563,10.7932773 C16.507563,9.83865546 15.7344538,9.06218487 14.7798319,9.06218487 Z M3.41176471,11.0722689 L4.80672269,13.5394958 L6.2487395,11.0722689 L7.02521008,11.0722689 L7.02521008,15.4890756 L6.10084034,15.4890756 L6.10084034,12.9445378 L5.18319328,14.4806723 L4.40672269,14.4806723 L3.46218487,12.9176471 L3.46218487,15.4890756 L2.61848739,15.4890756 L2.61848739,11.0722689 L3.41176471,11.0722689 Z M9.50252101,11.0722689 C10.194958,11.0722689 10.6319328,11.1697479 10.9176471,11.4352941 C11.1563025,11.6537815 11.2739496,11.9966387 11.2739496,12.4672269 C11.2739496,12.9378151 11.1630252,13.2941176 10.9445378,13.5394958 C10.6857143,13.8285714 10.2857143,13.9663866 9.70420168,13.9663866 L8.99495798,13.9663866 L8.99495798,15.4890756 L7.98655462,15.4890756 L7.98655462,11.0722689 L9.50252101,11.0722689 Z M13.7042017,11.0689076 L12.7092437,13.7815126 L13.7310924,13.7815126 L13.7310924,12.7294118 L14.6554622,12.7294118 L14.6554622,13.7815126 L15.1731092,13.7815126 L15.1731092,14.4739496 L14.6554622,14.4739496 L14.6554622,15.4890756 L13.7310924,15.4890756 L13.7310924,14.4739496 L11.7882353,14.4739496 C11.7747899,14.4302521 11.7613445,14.3327731 11.7613445,14.2487395 C11.7613445,14.0672269 11.794958,13.8621849 11.8957983,13.5764706 L12.8134454,11.0689076 L13.7042017,11.0689076 Z M9.46218487,11.8016807 L8.99159664,11.8016807 L8.99159664,13.210084 L9.48571429,13.210084 C9.80840336,13.210084 9.94285714,13.1663866 10.0739496,13.0420168 C10.1915966,12.9243697 10.2487395,12.7394958 10.2487395,12.4806723 C10.2487395,12.2420168 10.1983193,12.0672269 10.0806723,11.9563025 C9.95966387,11.8453782 9.77142857,11.8016807 9.46218487,11.8016807 Z M16.4705882,1.21008403 L16.4705882,3.95966387 C16.4705882,4.83361345 16.7596639,5.57647059 17.3109244,6.10756303 C17.8655462,6.64201681 18.6386555,6.92436975 19.5529412,6.92436975 L22.3731092,6.92436975 L16.4705882,1.21008403 Z" id="Documento_Archivo-MP4_1Light"></path>
        </g>
    </g>
</svg>

<svg width="24" height="24" viewBox="0 0 24 24" xmlns="http://www.w3.org/2000/svg"><path d="M16.306.007c.218 0 .427.084.581.232l6.491 6.282a.76.76 0 01.205.387.47.47 0 01.04.195v15.075c0 .783-.675 1.446-1.475 1.446H7.224c-.787 0-1.476-.676-1.476-1.446l.044-3.644h-3.07c-1.498 0-2.719-1.22-2.719-2.722v-5.015a2.723 2.723 0 012.72-2.723h3.025V1.452c0-.756.702-1.445 1.476-1.445h9.082zm-.827.988H7.22c-.222 0-.487.245-.487.454V8.07h8.043c1.5 0 2.72 1.22 2.72 2.722v5.015a2.723 2.723 0 01-2.72 2.723h-8l-.043 3.65c0 .219.245.448.487.448h14.928v.003c.249 0 .487-.222.487-.454V7.92h-3.082c-1.177 0-2.192-.38-2.931-1.095-.746-.723-1.143-1.715-1.143-2.861V.995zm-.7 8.067H2.72c-.95 0-1.727.777-1.727 1.731v5.015a1.73 1.73 0 001.727 1.731h12.06c.952 0 1.729-.776 1.729-1.73v-5.016a1.73 1.73 0 00-1.728-1.73zm-11.367 2.01l1.395 2.467 1.442-2.467h.776v4.417h-.924v-2.544l-.918 1.536h-.776l-.945-1.563v2.571h-.844v-4.417h.794zm6.09 0c.693 0 1.13.098 1.416.363.238.219.356.562.356 1.032s-.111.827-.33 1.072c-.258.29-.658.427-1.24.427h-.709v1.523H7.987v-4.417h1.516zm4.202-.003l-.995 2.713h1.022v-1.053h.924v1.053h.518v.692h-.518v1.015h-.924v-1.015h-1.943a.934.934 0 01-.027-.225c0-.182.034-.387.135-.673l.917-2.507h.891zm-4.242.733h-.47v1.408h.494c.322 0 .457-.044.588-.168.118-.118.175-.303.175-.561 0-.239-.05-.414-.168-.525-.121-.11-.31-.154-.619-.154zM16.471 1.21v2.75c0 .874.289 1.616.84 2.148.555.534 1.328.816 2.242.816h2.82L16.471 1.21z" fill="#5CB615" fill-rule="nonzero"/></svg>
